X:1
T:Gott, steh' uns bey
T:Joachim a Burck
T:Source : Breitkopf & Härtel---Leipzig---R.Eitner---1898. First print ; 20 Deutsche Liedlein mit 4 Stimmen---Erfurt---G.Baumann---1575. Editor : André Vierendeels (02/11/17). Notes : Original clefs : C1, C3, C4, F4 Editorial accidentals above the staff Text by Ludovico Helmbold (Christliche Reimen)
T:Gott, steh' uns bey
T:©
T:©
C:Joachim a Burck
Z:©
%%score [ 1 2 3 4 ]
L:1/8
Q:1/4=120
M:4/4
K:C
V:1 treble nm="Soprano" snm="S"
V:2 treble-8 nm="Tenor 1" snm="T 1"
V:3 treble-8 nm="Tenor 2" snm="T 2"
V:4 bass nm="Bass" snm="B"
V:1
 E4 E4 | ^F2 G4 G2 | E2 E2 E4 | z4 z2 A2- | A2 G4 E2 | ^F2 F2 G4- | G2 G2 E4 | z4 G4 | A2 B2 c4 | %9
w: Gott, steh'|uns bey zu|die- ser Zeit,|Gott,|_ steh' uns|bey zu die-|* ser Zeit,|da|sich die al-|
 B4 A4- | A2 ^G2 A4 | z4 z2 B2 | c4 A2 A2- | A2 ^G2 A4 | F4 E4 | z2 G2 G2 G2 | E4 A4 | G6 ^F2 | %18
w: te Schlang|_ nog regt,|da|sich die al-|* te Schlang|nog regt,|und lest nicht|ab von|ih- rem|
 G8 | z4 A4 | G4 G2 F2- | F2 E2 E2 E2 | E4 z2 A2 | G4 G2 F2- | F2 E2 E3 E | E8 |] %26
w: Streit,|wi-|der des Glau-|* bens ei- nig-|keit, wi-|der des Glau-|* bens ei- nig-|keit.|
V:2
 ^c4 c4 | d2 e4 d2 | c2 B2 c4 | z2 e2 e2 d2 | e6 g2 | d4 d4 | e4 z2 c2 | c4 d2 e2- | e2 d2 e4- | %9
w: Gott, steh'|uns bey zu|die- ser Zeit,|Gott, steh' uns|bey zu|di- ser|Zeit, da|sich die al-|* te Schlang|
 e2 e2 c4 | e4 f4- | f2 e2 f2 d2 | c6 d2 | B4 z2 c2 | A2 F2 G4 | d4 e3 f | g2 g2 f2 f2 | e2 c2 d4 | %18
w: _ nog regt,|da sich|_ die al- te|Schlang nog|regt, und|lest nicht ab|von ih- *|* rem Streit, und|lest nicht ab|
 d4 d2 e2 | f4 e4 | c4 B2 A2- | A2 A2 A2 ^G2 | A4 z2 e2 | e4 d2 d2- | d2 c2 c2 B2 | ^c8 |] %26
w: von ih- rem|Streit, wi-|der des Glau-|* bens ei- nig-|keit, wi-|der des Glau-|* bens ei- nig-|keit.|
V:3
 A4 A4 | A2 c4 B2 | A2 ^G2 A4 | z2 c2 c2 A2 | B4 c4 | A4 B4 | c4 G4 | A4 B2 c2- | c2 B2 A4 | %9
w: Gott, steh'|uns bey zu|die- ser Zeit,|Gott, steh' uns|bey zu|die- ser|Zeit, da|sich die al-|* te Schlang|
 ^G4 A4 | z2 B2 d4 | A2 A4 G2 | A4 F4 | E8 | z2 A2 c2 c2 | B4 c4 | B2 c2 d2 c2 | c2 G2 A4 | %18
w: nog regt,|da sich|die al- te|Schlang nog|regt,|und lest nicht|ab von|ih- rem Streit, und|lest nicht ab|
 B2 B4 c2 | d4 c4 | e4 d2 d2- | d2 c2 c2 B2 | c4 z2 c2 | c4 B2 A2- | A2 A2 A2 ^G2 | A8 |] %26
w: von ih- rem|Streit, wi-|der des Glau-|* bens ei- nig-|keit, wi-|der des Glau-|* bens ei- nig-|keit.|
V:4
 A,,4 A,,4 | D,2 C,4 G,,2 | A,,2 E,,2 A,,4 | z2 A,2 A,2 F,2 | E,4 C,4 | D,4 G,,4 | C,8 | z8 | z8 | %9
w: Gott, steh'|uns beu zu|die- ser Zeit,|Gott, steh' uns|bey zu|die- ser|Zeit,|||
 E,4 F,4 | E,4 D,4- | D,2 ^C,2 D,2 B,,2 | A,,4 z4 | z4 A,,4 | D,2 D,2 C,4 | G,,4 C,3 D, | %16
w: da sich|die al-|* te Schlang noch|regt,|und|lest nicht ab|von ih- *|
 E,2 E,2 D,2 F,2 | C,2 E,2 D,4 | G,2 G,4 E,2 | D,4 A,,4 | C,4 G,,2 D,2- | D,2 A,,2 E,2 E,2 | %22
w: * rem Streit, und|lest nicht ab|von ih- rem|Streit, wi-|der des Glau-|* bens ei- nig-|
 A,,4 z2 A,,2 | C,4 G,,2 D,2- | D,2 A,,2 E,2 E,2 | A,,8 |] %26
w: keit, wi-|der des Glau-|* bens ei- nig-|keit.|

